packages/kaspersky-hexa-ui-icons/src/iconsSVGs/24/StatusPremiumColor.svg

<svg width="24" height="24" viewBox="0 0 24 24" fill="none" xmlns="http://www.w3.org/2000/svg">
<path fill-rule="evenodd" clip-rule="evenodd" d="M11.999 22.0854C11.999 22.0854 20 19.5244 20 14.1574V6.37545L11.999 2.08545L4 6.37445V14.1574C4 19.5184 11.978 22.0784 11.999 22.0854Z" fill="#DA8C03"/>
<path fill-rule="evenodd" clip-rule="evenodd" d="M11.999 22.0854V2.08545L4 6.37445V14.1574C4 19.5184 11.978 22.0784 11.999 22.0854Z" fill="#FFAA00"/>
<path fill-rule="evenodd" clip-rule="evenodd" d="M14 11.0854C14 9.98145 13.104 9.08545 12 9.08545C10.896 9.08545 10 9.98145 10 11.0854C10 11.8234 10.404 12.4614 11 12.8084V16.0854H13V12.8084C13.596 12.4614 14 11.8234 14 11.0854Z" fill="white"/>
</svg>

<svg xmlns="http://www.w3.org/2000/svg" width="24" height="24" fill="none" viewBox="0 0 24 24"><path fill="#da8b03" fill-rule="evenodd" d="M11.999 22.0854S20 19.5244 20 14.1574v-7.782l-8.001-4.29L4 6.3744v7.783c0 5.361 7.978 7.921 7.999 7.928"/><path fill="#da8b03" fill-rule="evenodd" d="M11.999 22.0854v-20L4 6.3745v7.783c0 5.361 7.978 7.921 7.999 7.928"/><path fill="#fa0" fill-rule="evenodd" d="M11.999 22.0854v-20L4 6.3745v7.783c0 5.361 7.978 7.921 7.999 7.928"/><path fill="#da8b03" fill-rule="evenodd" d="M14 11.0854c0-1.104-.896-2-2-2s-2 .896-2 2c0 .738.404 1.376 1 1.723v3.277h2v-3.277c.596-.347 1-.985 1-1.723"/><path fill="#fff" fill-rule="evenodd" d="M14 11.0854c0-1.104-.896-2-2-2s-2 .896-2 2c0 .738.404 1.376 1 1.723v3.277h2v-3.277c.596-.347 1-.985 1-1.723"/></svg>
